build/img/icon/advantages-1.svg

<svg xmlns="http://www.w3.org/2000/svg" width="512" height="512" fill="none"><g clip-path="url(#clip0)" fill="#2A47B6"><path d="M418.88 344.043l-54.869-19.093c-4.011-1.365-8.469-.277-11.371 2.859-26.901 29.355-61.227 45.525-96.64 45.525-35.413 0-69.739-16.171-96.64-45.525-2.901-3.136-7.36-4.224-11.371-2.859L93.12 344.043C37.419 363.413 0 416.043 0 475.008v15.659c0 5.888 4.779 10.667 10.667 10.667h490.667c5.888 0 10.667-4.779 10.667-10.667v-15.659c-.001-58.987-37.42-111.616-93.121-130.965zM490.667 480H21.333v-4.992c0-49.899 31.659-94.443 78.784-110.827l48.384-16.832c30.251 30.571 68.181 47.317 107.499 47.317s77.248-16.747 107.499-47.317l48.384 16.832c47.125 16.384 78.784 60.928 78.784 110.827V480zM224 181.333h-21.333c-5.888 0-10.667 4.779-10.667 10.667s4.779 10.667 10.667 10.667H224c5.888 0 10.667-4.779 10.667-10.667s-4.779-10.667-10.667-10.667zm85.333 0H288c-5.888 0-10.667 4.779-10.667 10.667s4.779 10.667 10.667 10.667h21.333c5.888 0 10.667-4.779 10.667-10.667s-4.779-10.667-10.667-10.667z"/><path d="M369.643 222.229a10.636 10.636 0 00-12.928 7.787C341.781 290.219 301.312 330.667 256 330.667c-45.312 0-85.781-40.448-100.715-100.651-1.429-5.739-7.232-9.195-12.928-7.787-5.717 1.408-9.195 7.211-7.787 12.928C151.915 305.045 200.704 352 256 352c55.296 0 104.085-46.955 121.429-116.843 1.408-5.717-2.069-11.52-7.786-12.928zM256 10.667c-70.507 0-125.739 56.235-125.739 128 0 5.888 4.779 10.667 10.667 10.667s10.667-4.779 10.667-10.667C151.595 78.848 197.44 32 256 32s104.405 46.848 104.405 106.667c0 5.888 4.779 10.667 10.667 10.667s10.667-4.779 10.667-10.667c0-71.766-55.232-128-125.739-128z"/><path d="M336.576 236.437c-4.949-3.264-11.52-1.941-14.784 2.965l-14.997 22.507a10.637 10.637 0 01-8.875 4.757h-3.925c-4.907 0-9.152-3.328-10.859-9.6l-6.635-15.851a10.652 10.652 0 00-9.835-6.549h-21.333c-4.309 0-8.171 2.581-9.856 6.571l-7.125 17.365a10.657 10.657 0 01-10.347 8.085h-3.925a10.64 10.64 0 01-8.875-4.757l-14.997-22.507c-3.264-4.907-9.877-6.251-14.784-2.965-4.907 3.264-6.229 9.877-2.965 14.784l14.997 22.507A31.97 31.97 0 00214.08 288h3.925c14.72 0 27.477-9.963 30.549-22.699l3.883-9.301h7.189l3.328 7.765A31.95 31.95 0 00293.994 288h3.925a31.938 31.938 0 0026.624-14.272l14.997-22.507c3.265-4.906 1.943-11.52-2.964-14.784z"/><path d="M222.784 229.717c-2.752-5.205-9.152-7.232-14.4-4.501-7.573 3.968-32.299 9.451-59.051 9.451-5.888 0-10.667 4.779-10.667 10.667S143.445 256 149.333 256c30.037 0 57.941-6.123 68.949-11.883 5.227-2.73 7.233-9.173 4.502-14.4zm139.883 4.95c-26.752 0-51.477-5.483-59.051-9.451-5.227-2.731-11.669-.704-14.4 4.501-2.731 5.227-.725 11.669 4.501 14.4 11.008 5.76 38.912 11.883 68.949 11.883 5.888 0 10.667-4.779 10.667-10.667s-4.778-10.666-10.666-10.666zm-121.024-82.752c-8.896-7.68-54.485-44.821-78.507-20.8-4.16 4.16-4.16 10.923 0 15.083s10.923 4.16 15.083 0c6.933-6.891 33.493 8.085 49.493 21.867a10.573 10.573 0 006.955 2.603c2.987 0 5.973-1.259 8.085-3.712 3.84-4.46 3.349-11.18-1.109-15.041zm107.221-20.779c-24-24.021-69.611 13.12-78.507 20.8-4.459 3.861-4.949 10.581-1.109 15.04a10.67 10.67 0 008.085 3.691 10.62 10.62 0 006.955-2.581c16.021-13.803 42.624-28.736 49.493-21.867 4.16 4.16 10.923 4.16 15.083 0s4.16-10.923 0-15.083z"/><path d="M377.877 75.669C332.288 54.272 259.2 53.355 255.915 53.333c-3.093.021-76.181.939-121.771 22.336A10.703 10.703 0 00128 85.781l6.272 147.243c.256 5.909 5.397 10.752 11.115 10.219 5.888-.256 10.453-5.227 10.197-11.115l-5.952-139.925c41.835-16.725 105.792-17.536 106.261-17.536.683 0 64.619.811 106.475 17.536l-5.952 139.925c-.256 5.888 4.309 10.859 10.197 11.115h.469c5.675 0 10.411-4.48 10.667-10.219L384 85.781a10.72 10.72 0 00-6.123-10.112zM268.416 288.128c-5.824-1.003-11.307 2.965-12.267 8.768l-.149.875-.149-.853c-.96-5.803-6.485-9.749-12.267-8.768-5.803.96-9.728 6.464-8.768 12.267l10.667 64A10.655 10.655 0 00256 373.334c5.226 0 9.664-3.776 10.517-8.939l10.667-64c.981-5.803-2.965-11.307-8.768-12.267z"/></g><defs><clipPath id="clip0"><path fill="#fff" d="M0 0h512v512H0z"/></clipPath></defs></svg>

<?xml version="1.0" encoding="UTF-8"?> <svg xmlns="http://www.w3.org/2000/svg" width="512" height="512" viewBox="0 0 512 512" fill="none"> <g clip-path="url(#clip0)"> <path d="M418.88 344.043L364.011 324.95C360 323.585 355.542 324.673 352.64 327.809C325.739 357.164 291.413 373.334 256 373.334C220.587 373.334 186.261 357.163 159.36 327.809C156.459 324.673 152 323.585 147.989 324.95L93.12 344.043C37.419 363.413 0 416.043 0 475.008V490.667C0 496.555 4.779 501.334 10.667 501.334H501.334C507.222 501.334 512.001 496.555 512.001 490.667V475.008C512 416.021 474.581 363.392 418.88 344.043ZM490.667 480H21.333V475.008C21.333 425.109 52.992 380.565 100.117 364.181L148.501 347.349C178.752 377.92 216.682 394.666 256 394.666C295.318 394.666 333.248 377.919 363.499 347.349L411.883 364.181C459.008 380.565 490.667 425.109 490.667 475.008V480V480Z" fill="#2A47B6"></path> <path d="M224 181.333H202.667C196.779 181.333 192 186.112 192 192C192 197.888 196.779 202.667 202.667 202.667H224C229.888 202.667 234.667 197.888 234.667 192C234.667 186.112 229.888 181.333 224 181.333Z" fill="#2A47B6"></path> <path d="M309.333 181.333H288C282.112 181.333 277.333 186.112 277.333 192C277.333 197.888 282.112 202.667 288 202.667H309.333C315.221 202.667 320 197.888 320 192C320 186.112 315.221 181.333 309.333 181.333Z" fill="#2A47B6"></path> <path d="M369.643 222.229C363.883 220.8 358.144 224.277 356.715 230.016C341.781 290.219 301.312 330.667 256 330.667C210.688 330.667 170.219 290.219 155.285 230.016C153.856 224.277 148.053 220.821 142.357 222.229C136.64 223.637 133.162 229.44 134.57 235.157C151.915 305.045 200.704 352 256 352C311.296 352 360.085 305.045 377.429 235.157C378.837 229.44 375.36 223.637 369.643 222.229Z" fill="#2A47B6"></path> <path d="M256 10.667C185.493 10.667 130.261 66.902 130.261 138.667C130.261 144.555 135.04 149.334 140.928 149.334C146.816 149.334 151.595 144.555 151.595 138.667C151.595 78.848 197.44 32 256 32C314.56 32 360.405 78.848 360.405 138.667C360.405 144.555 365.184 149.334 371.072 149.334C376.96 149.334 381.739 144.555 381.739 138.667C381.739 66.901 326.507 10.667 256 10.667Z" fill="#2A47B6"></path> <path d="M336.576 236.437C331.627 233.173 325.056 234.496 321.792 239.402L306.795 261.909C304.811 264.896 301.483 266.666 297.92 266.666H293.995C289.088 266.666 284.843 263.338 283.136 257.066L276.501 241.215C274.837 237.247 270.976 234.666 266.666 234.666H245.333C241.024 234.666 237.162 237.247 235.477 241.237L228.352 258.602C227.157 263.359 222.912 266.687 218.005 266.687H214.08C210.517 266.687 207.189 264.916 205.205 261.93L190.208 239.423C186.944 234.516 180.331 233.172 175.424 236.458C170.517 239.722 169.195 246.335 172.459 251.242L187.456 273.749C193.408 282.667 203.371 288 214.08 288H218.005C232.725 288 245.482 278.037 248.554 265.301L252.437 256H259.626L262.954 263.765C266.517 278.037 279.295 288 293.994 288H297.919C308.628 288 318.591 282.667 324.543 273.728L339.54 251.221C342.805 246.315 341.483 239.701 336.576 236.437Z" fill="#2A47B6"></path> <path d="M222.784 229.717C220.032 224.512 213.632 222.485 208.384 225.216C200.811 229.184 176.085 234.667 149.333 234.667C143.445 234.667 138.666 239.446 138.666 245.334C138.666 251.222 143.445 256 149.333 256C179.37 256 207.274 249.877 218.282 244.117C223.509 241.387 225.515 234.944 222.784 229.717Z" fill="#2A47B6"></path> <path d="M362.667 234.667C335.915 234.667 311.19 229.184 303.616 225.216C298.389 222.485 291.947 224.512 289.216 229.717C286.485 234.944 288.491 241.386 293.717 244.117C304.725 249.877 332.629 256 362.666 256C368.554 256 373.333 251.221 373.333 245.333C373.333 239.445 368.555 234.667 362.667 234.667Z" fill="#2A47B6"></path> <path d="M241.643 151.915C232.747 144.235 187.158 107.094 163.136 131.115C158.976 135.275 158.976 142.038 163.136 146.198C167.296 150.358 174.059 150.358 178.219 146.198C185.152 139.307 211.712 154.283 227.712 168.065C229.739 169.814 232.192 170.668 234.667 170.668C237.654 170.668 240.64 169.409 242.752 166.956C246.592 162.496 246.101 155.776 241.643 151.915Z" fill="#2A47B6"></path> <path d="M348.864 131.136C324.864 107.115 279.253 144.256 270.357 151.936C265.898 155.797 265.408 162.517 269.248 166.976C271.36 169.408 274.325 170.667 277.333 170.667C279.808 170.667 282.282 169.814 284.288 168.086C300.309 154.283 326.912 139.35 333.781 146.219C337.941 150.379 344.704 150.379 348.864 146.219C353.024 142.059 353.024 135.296 348.864 131.136Z" fill="#2A47B6"></path> <path d="M377.877 75.669C332.288 54.272 259.2 53.355 255.915 53.333C252.822 53.354 179.734 54.272 134.144 75.669C130.24 77.504 127.829 81.493 128 85.781L134.272 233.024C134.528 238.933 139.669 243.776 145.387 243.243C151.275 242.987 155.84 238.016 155.584 232.128L149.632 92.203C191.467 75.478 255.424 74.667 255.893 74.667C256.576 74.667 320.512 75.478 362.368 92.203L356.416 232.128C356.16 238.016 360.725 242.987 366.613 243.243C366.762 243.243 366.933 243.243 367.082 243.243C372.757 243.243 377.493 238.763 377.749 233.024L384 85.781C384.171 81.493 381.76 77.504 377.877 75.669Z" fill="#2A47B6"></path> <path d="M268.416 288.128C262.592 287.125 257.109 291.093 256.149 296.896L256 297.771L255.851 296.918C254.891 291.115 249.366 287.169 243.584 288.15C237.781 289.11 233.856 294.614 234.816 300.417L245.483 364.417C246.336 369.558 250.774 373.334 256 373.334C261.226 373.334 265.664 369.558 266.517 364.395L277.184 300.395C278.165 294.592 274.219 289.088 268.416 288.128Z" fill="#2A47B6"></path> </g> <defs> <clipPath id="clip0"> <rect width="512" height="512" fill="white"></rect> </clipPath> </defs> </svg>
